X: 33705
T: Rannie MacLellan's
R: jig
M: 6/8
K: Dmajor
d|BAF F<(AA)|EDE E<Fd|BAF ABd|FEE Edc|BAF F<(AA)|
EDE E<Fd|BAF ABd|FED D2:|f|aba afd|efe (e<f)a|
fed BdB|1 AFD D2 f|aba afd|efe (e<f)a|fed BDB|AFD D2||
[2AFD EFA|BAF (F/(AA))|EDE (EF<)d|BAF ABd|FED d2||

